X: 1
T: Balls To Hall
M: 6/8
L: 1/8
R: jig
K: Emin
E2F|:GEE AEE|BEE cBA|B2B BAG|FGF DEF|
GEE AEE|BEE cBA|B2B B2A|1 GED E2F:|2GED E3||
B>ee e2f|^g2g gfe|^c>aa a2^g|f2f fe^c|B>BB e2f|
[1^g3 g2a| bee aee|^gag fe^c:|
[2^g3 g2g| aef dAB | FEF DEF||
